X:4101
T:Mazurka des familles
O:england
M:3/4
L:1/8
K:G
GB|d2 dB ce|d3 B dB|c2 cA BG|AF AF GB|\
d2 dB ce|d3 B dB|cA BG AF|G4:|
|:FG|A2 AG Ac|B2 BA Bd|c2 cA cA|\
B2 G2 FG|A2 AG Ac|B2 BA Bd|cB AF AF|G4:|


